X:1
T:Title
%%score { ( 1 3 ) | ( 2 4 ) }
L:1/8
Q:1/4=94
M:4/4
K:Bb
V:1 treble nm="Grand Piano"
V:3 treble 
V:2 bass 
V:4 bass 
V:1
 [Fd]2 [DB]>[EG] [EG][DF][F,B,D][B,DF] | [B,EG][B,GB] [EGB]>[EGc] [DFB]4 | BAAG [EG][DF][DF][Fd] | %3
w: L.~Baltzell * * * * * *|||
 [=Ed]2 [Ec]>G c4 | [Fd][Fd][DB][EG] [EG][DF][B,D][DF] | [EG][GB] [GB]>[Ge] d4 | %6
w: |||
 [Gd][Gc][EG][Ec] [FB][DF][FB][Gc] | d2 c>c [DB]4 | [Fd]2 z _A, cB G2 | [DF][DF][FB][Fd] d2 c2 | %10
w: ||||
 e2 d2 z4 | z2 c2 z4 | BABG [DF][_D=E][=DF][Fd] | [=Ed][Ec][Ec]G c4 | edcc [Fd][Fc][FB]G | %15
w: |||||
 F2 c>d [DB]4 |] %16
w: |
V:2
 [B,,B,]2 [B,,B,]>[B,,B,] [B,,B,][B,,B,]B,,B,, | E,E, E,>E, B,,4 | %2
 [F,CE][F,CE][F,CE][F,A,E] [B,,B,][B,,B,][B,,B,][B,,B,] | [C,B,]2 [C,B,]>[=E,B,] [F,A,F]4 | %4
 [B,,B,][B,,B,][B,,B,][B,,B,] [B,,B,][B,,B,][B,,F,][B,,B,] | [E,B,][E,E] [E,E]>[E,B,] [B,F]4 | %6
 [E,B,][E,B,][E,B,][E,B,] [D,B,][B,,B,][D,B,][E,B,] | [F,B,F]2 [F,A,E]>[F,A,E] [B,,B,]4 | %8
 [B,,B,][B,,B,][B,,F,]B,, [E,G,E]2 [E,B,E]2 | [B,,B,][B,,B,][D,B,][B,,B,] [F,B,F]2 [F,A,F]2 | %10
 F2 F2 z4 | [B,,B,][B,,B,][B,,F,][B,,F,] [B,,F,][B,,F,] [B,,F,]2 | %12
 [E,G,E][E,^F,E][E,G,E][E,B,E] [B,,B,][B,,B,][B,,B,][B,,B,] | [C,B,][C,B,][C,B,][=E,B,] [F,A,F]4 | %14
 [F,CF][F,B,F][F,A,F][F,A,F] [B,,B,][C,A,][D,B,][E,B,E] | [F,B,D]2 [F,A,E]>[F,A,F] [B,,B,]4 |] %16
V:3
 x8 | x8 | x8 | x8 | x8 | x8 | x8 | x8 | z2 [DB]2 z4 | x8 | z C z B, c=BcF | %11
 [Fd][Fd]EE [DB][CA] [DB]2 | x8 | x8 | x8 | x8 |] %16
V:4
 x8 | x8 | x8 | x8 | x8 | x8 | x8 | x8 | x8 | x8 | [F,C]F,[F,B,]F, [F,A,F][F,_A,F][F,=A,F][F,A,] | %11
 x8 | x8 | x8 | x8 | x8 |] %16

